svgs/light/battery-empty.svg

<svg xmlns="http://www.w3.org/2000/svg" viewBox="0 0 576 512"><!--! Font Awesome Pro 6.4.0 by @fontawesome - https://fontawesome.com License - https://fontawesome.com/license (Commercial License) Copyright 2023 Fonticons, Inc. --><path d="M80 128c-26.5 0-48 21.5-48 48V336c0 26.5 21.5 48 48 48H432c26.5 0 48-21.5 48-48V176c0-26.5-21.5-48-48-48H80zM0 176c0-44.2 35.8-80 80-80H432c44.2 0 80 35.8 80 80V336c0 44.2-35.8 80-80 80H80c-44.2 0-80-35.8-80-80V176zm560 16c8.8 0 16 7.2 16 16v96c0 8.8-7.2 16-16 16s-16-7.2-16-16V208c0-8.8 7.2-16 16-16z"/></svg>

<svg xmlns="http://www.w3.org/2000/svg" viewBox="0 0 576 512"><!--! Font Awesome Pro 6.3.0 by @fontawesome - https://fontawesome.com License - https://fontawesome.com/license (Commercial License) Copyright 2023 Fonticons, Inc. --><path d="M432 96C476.2 96 512 131.8 512 176V336C512 380.2 476.2 416 432 416H80C35.82 416 0 380.2 0 336V176C0 131.8 35.82 96 80 96H432zM32 336C32 362.5 53.49 384 80 384H432C458.5 384 480 362.5 480 336V176C480 149.5 458.5 128 432 128H80C53.49 128 32 149.5 32 176V336zM560 192C568.8 192 576 199.2 576 208V304C576 312.8 568.8 320 560 320C551.2 320 544 312.8 544 304V208C544 199.2 551.2 192 560 192z"/></svg>
